!!!!SEGMENT: pl-kk--kk-i-7--088_gorczycki-grzegorz-gerwazy--laetentur-caeli.krn
!!!cenid: 16xx:927
!!!COM: Gorczycki, Grzegorz Gerwazy
!!!COM-rismid: pe30009207
!!!CDT: ~1666-1734/04/30
!!!CNT: Polish
!!!OTL: Laetentur caeli
!!!PDT:
!!!AGN: Sacred
!!!SMS-siglum: PL-Kk
!!!SMS-shelfmark: Kk.I.7
!!!SMS-shelfwork: 088 W
!!!SMS-variant:
!!!SMS-altvar:
!!!NIFC-rismid: 300258165
!!!URL-scan: http://repozytorium.nifc.pl/skany/pl-kk-nut--i-7
!!!ONB-nifc: UWAGA: C (skan 0073-0074 , s.139-140), A (brak), T(0236, s.134), B(0323, s.133). Następny utwór: Alleluia Prophetae sancti
**kern	**text	**kern	**text	**kern	**kern	**text
*part4	*part4	*part3	*part3	*part2	*part1	*part1
*staff4	*staff4	*staff3	*staff3	*staff2	*staff1	*staff1
*Ibass	*	*Itenor	*	*Ialto	*Ivox	*
*I"Basso	*	*I"Tenore	*	*I"Alto	*I"Canto	*
*I'B.	*	*I'T.	*	*I'A.	*I'C.	*
*clefF4	*	*clefC4	*	*clefC3	*clefC1	*
*k[]	*	*k[]	*	*k[]	*k[]	*
*G:	*	*G:	*	*G:	*G:	*
*M2/1	*	*M2/1	*	*	*M2/1	*
*met(c|)	*	*met(c|)	*	*	*met(c|)	*
=1-	=1-	=1-	=1-	=1-	=1-	=1-
00r	.	00r	.	0ryy	1g\	Lae-
*	*	*	*	*	*2\right	*
.	.	.	.	.	2.a\	-ten-
.	.	.	.	.	4b\	.
=2-	=2-	=2-	=2-	=2-	=2-	=2-
.	.	.	.	0ryy	4cc\	.
.	.	.	.	.	4a\	.
.	.	.	.	.	4b\	.
!	!	!	!	!	!LO:TX:t=P:problem:kreska pseudotaktowa	!
.	.	.	.	.	4cc\	.
.	.	.	.	.	4dd\	.
.	.	.	.	.	4cc\	.
.	.	.	.	.	4b\	.
.	.	.	.	.	4a\	.
=3-	=3-	=3-	=3-	=3-	=3-	=3-
00r	.	0r	.	0ryy	2g\	-tur
!	!	!	!	!	!LO:TX:t=P:problem:kreska pseudotaktowa	!
.	.	.	.	.	2cc\	Cae-
.	.	.	.	.	4b\	.
.	.	.	.	.	4g\	.
.	.	.	.	.	4a\	.
.	.	.	.	.	4b\	.
=4-	=4-	=4-	=4-	=4-	=4-	=4-
!	!	!LO:TX:t=P:problem:kreska pseudotaktowa	!	!	!	!
.	.	1r	.	0ryy	1cc\	.
.	.	1G/	Lae-	.	2b\	-li
.	.	.	.	.	2b\	lae-
=5-	=5-	=5-	=5-	=5-	=5-	=5-
*	*	*2\right	*	*	*	*
!LO:TX:t=P:problem:kreska pseudotaktowa	!	!	!	!	!	!
0r	.	2.A\	-ten-	0ryy	2.cc\	-ten-
!	!	!LO:TX:t=P:problem:kreska pseudotaktowa	!	!	!LO:TX:t=P:problem:kreska pseudotaktowa	!
.	.	4B\	.	.	4dd\	.
.	.	4c\	.	.	4ee\	.
.	.	4A\	.	.	4cc\	.
.	.	4B\	.	.	4dd\	.
.	.	4c\	.	.	4ee\	.
=6-	=6-	=6-	=6-	=6-	=6-	=6-
!LO:TX:t=P:problem:kreska pseudotaktowa	!	!	!	!	!	!
1D\	Lae-	4d\	.	0ryy	2a\	-tur
.	.	4c\	.	.	.	.
.	.	4B\	.	.	4dd\	Cae-
!	!	!	!	!	!LO:TX:t=P:problem:kreska pseudotaktowa	!
.	.	4A\	.	.	4cc\	.
*2\right	*	*	*	*	*	*
2.E\	-ten-	2G/	-tur	.	4b\	.
.	.	.	.	.	4a\	.
!	!	!LO:TX:t=P:problem:kreska pseudotaktowa	!	!	!	!
.	.	2c\	Cae-	.	1g\	.
!LO:TX:t=P:problem:kreska pseudotaktowa	!	!	!	!	!	!
4F\	.	.	.	.	.	.
=7-	=7-	=7-	=7-	=7-	=7-	=7-
(4G\	.	4B\	.	0ryy	.	.
4E\	.	4G/	.	.	.	.
!	!	!	!	!	!LO:TX:t=P:problem:kreska pseudotaktowa	!
4F\	.	4A\	.	.	2f/	.
!LO:TX:t=P:problem:kreska pseudotaktowa	!	!	!	!	!	!
4G\)	.	4B\	.	.	.	.
(4A\	.	1c\	.	.	2e/	-li
4G\	.	.	.	.	.	.
4F\)	.	.	.	.	2.f/	et
!LO:TX:t=P:problem:kreska pseudotaktowa	!	!	!	!	!	!
4E\	.	.	.	.	.	.
=8-	=8-	=8-	=8-	=8-	=8-	=8-
!	!	!LO:TX:t=P:problem:kreska pseudotaktowa	!	!	!	!
2D/	.	1d\	-li	0ryy	.	.
.	.	.	.	.	4g\	.
!LO:TX:t=P:problem:kreska pseudotaktowa	!	!	!	!	!	!
2D/	-tur	.	.	.	4a\	.
.	.	.	.	.	4b\	.
1A\	Cae-	2r	.	.	2cc\	.
!	!	!	!	!	!LO:TX:t=P:problem:kreska pseudotaktowa	!
.	.	2c\	et	.	2a\	ex-
=9-	=9-	=9-	=9-	=9-	=9-	=9-
2G\,	-li	2d\	ex-	0ryy	2b\	-ul-
!LO:TX:t=P:problem:kreska pseudotaktowa	!	!	!	!	!	!
2C/	et	2e\	-ul-	.	2.cc\	-tet
2F\	ex-	2f\	-tet	.	.	.
.	.	.	.	.	4dd\	.
!LO:TX:t=P:problem:kreska pseudotaktowa	!	!LO:TX:t=P:problem:kreska pseudotaktowa:między nutą a kropką	!	!	!	!
2G\	-ul-	[<2d\	ter-	.	2b\	.
=10-	=10-	=10-	=10-	=10-	=10-	=10-
!	!	!LO:N:xstem:cue	!	!	!	!
2D/,	-tet	4d\]	.	0ryy	2a\	ter-
.	.	4c\	.	.	.	.
!LO:TX:t=P:problem:kreska pseudotaktowa:między nutą a kropką	!	!	!	!	!LO:TX:t=P:problem:kreska pseudotaktowa	!
[2G\	ter-	4B\	.	.	2g/	-ra
.	.	4A\	.	.	.	.
!LO:N:xstem:cue	!	!	!	!	!LO:LB:g=original	!
*	*	*lig	*	*	*	*
4G\]	.	1B\	.	.	2r	.
4F\	.	.	.	.	.	.
4E\	.	.	.	.	1g\	et
!LO:TX:t=P:problem:kreska pseudotaktowa	!	!	!	!	!	!
4D\	.	.	.	.	.	.
=11-	=11-	=11-	=11-	=11-	=11-	=11-
4C/	.	1c\	.	0ryy	.	.
4BB/	.	.	.	.	.	.
2AA/	.	.	.	.	2a\	ex-
*	*	*Xlig	*	*	*	*
!	!	!LO:TX:t=P:problem:kreska pseudotaktowa	!	!	!	!
2GG/,	-ra	1d\	-ra	.	4b\	-ul-
.	.	.	.	.	4a\	.
2.G\	et	.	.	.	4b\	.
!	!	!	!	!	!LO:TX:t=P:problem:kreska pseudotaktowa	!
.	.	.	.	.	4cc\	.
=12-	=12-	=12-	=12-	=12-	=12-	=12-
.	.	1B\	et	0ryy	2dd\	.
4F\	.	.	.	.	.	.
4E\	.	.	.	.	1ee\	-tet
!LO:TX:t=P:problem:kreska pseudotaktowa	!	!	!	!	!	!
4D\	.	.	.	.	.	.
2C/,	.	2c\	ex-	.	.	.
!LO:TX:t=P:problem:kreska pseudotaktowa	!	!	!	!	!LO:TX:t=P:problem:kreska pseudotaktowa:między nutą a kropką	!
2C/	ex-	2.e\	-ul-	.	[<2cc\	ter-
=13-	=13-	=13-	=13-	=13-	=13-	=13-
!	!	!	!	!	!LO:N:xstem:cue	!
(2.AA/	-ul-	.	.	0ryy	4cc\]	.
.	.	4d\	.	.	4b\	.
.	.	1c\	.	.	2.a\	.
!LO:TX:t=P:problem:kreska pseudotaktowa	!	!	!	!	!	!
4BB/)	.	.	.	.	.	.
(2C/	-tet	.	.	.	.	.
.	.	.	.	.	4g\	.
2GG/)	.	2B\	-tet	.	1g\	.
=14-	=14-	=14-	=14-	=14-	=14-	=14-
1D\	ter-	1A\	ter-	0ryy	.	.
!	!	!	!	!	!LO:TX:b:t=P:problem:# below	!
.	.	.	.	.	2f#X/	.
!LO:TX:t=P:problem:kreska pseudotaktowa	!	!	!	!	!LO:TX:t=P:problem:kreska pseudotaktowa	!
1GG/	-ram	2G/,	-ra	.	0g\	-ra.
.	.	1d\	Com-	.	.	.
!LO:LB:g=original	!	!	!	!	!	!
=15-	=15-	=15-	=15-	=15-	=15-	=15-
!LO:TX:t=P:problem:kreska pseudotaktowa	!	!	!	!	!	!
1G\	com-	.	.	0ryy	.	.
!	!	!LO:TX:t=P:problem:kreska pseudotaktowa	!	!	!	!
!	!	!LO:SIC:v:t=custos b	!	!	!	!
.	.	2B\	-mo-	.	.	.
!	!	!LO:LB:g=original	!	!	!	!
2E\	-mo-	2B\	-ve-	.	00r	.
!LO:TX:t=P:problem:kreska pseudotaktowa	!	!	!	!	!	!
2E\	-ve-	1c\	-a-	.	.	.
=16-	=16-	=16-	=16-	=16-	=16-	=16-
1F\	-a-	.	.	0ryy	.	.
!	!	!LO:TX:t=P:problem:kreska pseudotaktowa	!	!	!	!
.	.	2A\	-tur	.	.	.
2D\	-tur	4d\	ma-	.	.	.
.	.	4c\	.	.	.	.
4G\	ma-	4B\	.	.	.	.
!LO:TX:t=P:problem:kreska pseudotaktowa	!	!	!	!	!	!
4F\	.	4A\	.	.	.	.
=17-	=17-	=17-	=17-	=17-	=17-	=17-
4E\	.	4G/	.	0ryy	.	.
4D\	.	4A\	.	.	.	.
!LO:TX:t=P:problem:kreska pseudotaktowa:między nutą a kropką	!	!	!	!	!	!
2.G\	.	4B\	.	.	.	.
.	.	4G/	.	.	.	.
!	!	!	!	!	!LO:TX:t=P:problem:kreska pseudotaktowa	!
.	.	1A\	.	.	1r	.
!LO:TX:a:t=P:problem:# above	!	!	!	!	!	!
8F#X\L	.	.	.	.	.	.
8E\J	.	.	.	.	.	.
2F#\	.	.	.	.	.	.
=18-	=18-	=18-	=18-	=18-	=18-	=18-
!	!	!LO:TX:t=P:problem:kreska pseudotaktowa	!	!	!	!
1G\	-re	1B\	-re	0ryy	1dd\	Com-
00r	.	00r	.	.	2b\	-mo-
.	.	.	.	.	2b\	-ve-
=19-	=19-	=19-	=19-	=19-	=19-	=19-
.	.	.	.	0ryy	1cc\	-a-
.	.	.	.	.	2a\	-tur
.	.	.	.	.	2.dd\	ma-
=20-	=20-	=20-	=20-	=20-	=20-	=20-
.	.	.	.	0ryy	.	.
.	.	.	.	.	4cc\	.
.	.	.	.	.	4b\	.
!	!	!	!	!	!LO:TX:t=P:problem:kreska pseudotaktowa	!
.	.	.	.	.	4a\	.
!LO:TX:t=P:problem:kreska pseudotaktowa	!	!LO:TX:t=P:problem:kreska pseudotaktowa	!	!	!	!
1r	.	1r	.	.	4g\	.
.	.	.	.	.	4a\	.
.	.	.	.	.	4b\	.
.	.	.	.	.	4g\	.
=21-	=21-	=21-	=21-	=21-	=21-	=21-
2r	.	2r	.	0ryy	1a\	.
!LO:TX:t=P:problem:kreska pseudotaktowa	!	!	!	!	!	!
2D\	et	1d\	et	.	.	.
(4G\	ple-	.	.	.	2b\,	-re,
4F\	.	.	.	.	.	.
!	!	!	!	!	!LO:TX:t=P:problem:kreska pseudotaktowa	!
4E\)	.	1e\	ple-	.	2b\	et
!LO:TX:t=P:problem:kreska pseudotaktowa	!	!	!	!	!	!
4D\	.	.	.	.	.	.
=22-	=22-	=22-	=22-	=22-	=22-	=22-
2C/	.	.	.	0ryy	2cc\	ple-
!LO:TX:t=P:problem:kreska pseudotaktowa	!	!LO:TX:t=P:problem:kreska pseudotaktowa	!	!	!	!
2BB/	-ni-	2d\	-ni-	.	2dd\	-ni-
2C/	-tu-	2c\	-tu-	.	2ee\	-tu-
!LO:TX:t=P:problem:kreska pseudotaktowa	!	!	!	!	!	!
2G\	-do	2B\	-do	.	2dd\	-do
=23-	=23-	=23-	=23-	=23-	=23-	=23-
1A\	e-	1c\	e-	0ryy	1cc\	e-
2G\,	-jus	2d\	-jus	.	2b\,	-jus
!LO:TX:t=P:problem:kreska pseudotaktowa	!	!LO:TX:t=P:problem:kreska pseudotaktowa	!	!	!LO:TX:t=P:problem:kreska pseudotaktowa	!
2G\	et	2B\	et	.	2g\	et
=24-	=24-	=24-	=24-	=24-	=24-	=24-
2D\	ple-	4d\	ple-	0ryy	1a\	ple-
.	.	4c\	.	.	.	.
!LO:TX:t=P:problem:kreska pseudotaktowa	!	!	!	!	!	!
2F\	-ni-	4A\	.	.	.	.
.	.	4B\	.	.	.	.
4C/	-tu-	4c\	.	.	2g\	-ni-
4D/	.	4B\	.	.	.	.
!	!	!	!	!	!LO:TX:t=P:problem:kreska pseudotaktowa:między nutą a kropką	!
4E/	.	4G/	.	.	[<2g\	-tu-
!LO:TX:t=P:problem:kreska pseudotaktowa	!	!	!	!	!	!
4F/	.	4A\	.	.	.	.
=25-	=25-	=25-	=25-	=25-	=25-	=25-
!	!	!	!	!	!LO:N:xstem:cue	!
2.G\	.	4B\	.	0ryy	4g\]	.
.	.	4c\	.	.	4a\	.
.	.	4d\	.	.	4b\	.
!	!	!	!	!	!LO:TX:t=P:problem:kreska pseudotaktowa	!
!	!	!LO:TX:t=P:problem:kreska pseudotaktowa	!	!	!LO:SIC:v:t=custos d	!
8F\L	.	4e\	.	.	4cc\	.
!LO:TX:t=P:problem:kreska pseudotaktowa	!	!	!	!	!	!
8E\J	.	.	.	.	.	.
!	!	!	!	!	!LO:LB:g=original	!
4D\	.	2f\	.	.	1dd\	.
4E\	.	.	.	.	.	.
4F\	.	2f\	-ni-	.	.	.
!LO:TX:t=P:problem:kreska pseudotaktowa	!	!	!	!	!	!
4G\	.	.	.	.	.	.
=26-	=26-	=26-	=26-	=26-	=26-	=26-
2A\	.	2e\	-tu-	0ryy	2cc#X\	-do
2B-X\	-do	2d\	-do	.	2.dd\	e-
!LO:TX:t=P:problem:kreska pseudotaktowa	!	!	!	!	!	!
1A\	e-	1e\	e-	.	.	.
.	.	.	.	.	8cc#X\L	.
.	.	.	.	.	8b\J	.
!	!	!	!	!	!LO:TX:t=P:problem:kreska pseudotaktowa	!
.	.	.	.	.	2cc#\	.
=27-	=27-	=27-	=27-	=27-	=27-	=27-
!	!	!LO:TX:t=P:problem:kreska pseudotaktowa	!	!	!	!
2D/,	-jus	0d\	-jus.	0ryy	2dd\	-jus
!LO:TX:t=P:problem:kreska pseudotaktowa	!	!	!	!	!	!
!LO:SIC:v:t=custos g	!	!	!	!	!	!
2D/	gau-	.	.	.	2a\	gau-
!LO:LB:g=original	!	!	!	!	!	!
4G\	-de-	.	.	.	4b\	-de-
4A\	.	.	.	.	4cc\	.
4Bn\	.	.	.	.	4dd\	.
!LO:TX:t=P:problem:kreska pseudotaktowa	!	!	!	!	!LO:TX:t=P:problem:kreska pseudotaktowa	!
4G\	.	.	.	.	4b\	.
=28-	=28-	=28-	=28-	=28-	=28-	=28-
4A\	.	1r	.	0ryy	2.cc\	.
4B\	.	.	.	.	.	.
1c\	.	.	.	.	.	.
.	.	.	.	.	4dd\	.
.	.	2r	.	.	2ee\	.
!LO:TX:t=P:problem:kreska pseudotaktowa	!	!	!	!	!LO:TX:t=P:problem:kreska pseudotaktowa	!
2B\	-bunt	2G/	gau-	.	2dd\	-bunt
=29-	=29-	=29-	=29-	=29-	=29-	=29-
1A\	Cam-	4c\	-de-	0ryy	4cc\	cam-
.	.	4d\	.	.	4b\	.
.	.	4e\	.	.	4cc\	.
!	!	!LO:TX:t=P:problem:kreska pseudotaktowa	!	!	!	!
!	!	!LO:SIC:v:t=custos d	!	!	!LO:TX:t=P:problem:kreska pseudotaktowa	!
.	.	4c\	.	.	4a\	.
!	!	!LO:LB:g=original	!	!	!	!
2G\,	-pi	4d\	.	.	4b\	.
.	.	4B\	.	.	4g\	.
!LO:TX:t=P:problem:kreska pseudotaktowa	!	!	!	!	!	!
2C/	gau-	2e\	-bunt	.	2cc\	.
=30-	=30-	=30-	=30-	=30-	=30-	=30-
!	!	!	!	!	!LO:TX:t=P:problem:kreska pseudotaktowa	!
4G\	-de-	1d\	Cam-	0ryy	1b\	pi;
4A\	.	.	.	.	.	.
4B\	.	.	.	.	.	.
!LO:TX:t=P:problem:kreska pseudotaktowa	!	!	!	!	!	!
4G\	.	.	.	.	.	.
4A\	.	1c\,	-pi	.	2r	.
4B\	.	.	.	.	.	.
!LO:TX:t=P:problem:kreska pseudotaktowa	!	!	!	!	!	!
2c\	-bunt	.	.	.	2g\	gau-
=31-	=31-	=31-	=31-	=31-	=31-	=31-
*lig	*	*	*	*	*	*
1A\	Cam-	2c\	gau-	0ryy	4a\	-de-
.	.	.	.	.	4b\	.
.	.	2c\	-de-	.	4cc\	.
.	.	.	.	.	4a\	.
1G\	.	2d\	-bunt	.	4b\	.
.	.	.	.	.	4cc\	.
!	!	!LO:TX:t=P:problem:kreska pseudotaktowa	!	!	!	!
.	.	2B\	Cam-	.	4dd\	.
!	!	!	!	!	!LO:TX:t=P:problem:kreska pseudotaktowa	!
.	.	.	.	.	4g/	.
*Xlig	*	*	*	*	*	*
=32-	=32-	=32-	=32-	=32-	=32-	=32-
*lig	*	*	*	*	*	*
1F\	.	4d\	.	0ryy	2a\	.
.	.	4c\	.	.	.	.
.	.	2.c\	.	.	2a\	-bunt
1G\	.	.	.	.	1g\	Cam-
.	.	8B\L	.	.	.	.
.	.	8A\J	.	.	.	.
.	.	2B\	.	.	.	.
*Xlig	*	*	*	*	*	*
=33-	=33-	=33-	=33-	=33-	=33-	=33-
!LO:TX:t=P:problem:kreska pseudotaktowa	!	!	!	!	!	!
1C/	-pi	2c\,	-pi	0ryy	1g\,	-pi
!	!	!LO:TX:t=P:problem:kreska pseudotaktowa	!	!	!	!
.	.	2G/	et	.	.	.
2r	.	1.c\	om-	.	1g\	et
!LO:TX:t=P:problem:kreska pseudotaktowa	!	!	!	!	!	!
2C/	et	.	.	.	.	.
=34-	=34-	=34-	=34-	=34-	=34-	=34-
1.F\	om-	.	.	0ryy	1.a\	om-
.	.	2c\	-ni-	.	.	.
.	.	2c\	-a	.	.	.
!	!	!	!	!	!LO:TX:t=P:problem:kreska pseudotaktowa	!
2F\	-ni-	1c\	quae	.	2a\	-ni-
=35-	=35-	=35-	=35-	=35-	=35-	=35-
!LO:TX:t=P:problem:kreska pseudotaktowa	!	!	!	!	!	!
1C/	-a	.	.	0ryy	2g\,	-a
.	.	1e\	in	.	1cc\	quae
2.G\	quae	.	.	.	.	.
!	!	!LO:TX:t=P:problem:kreska pseudotaktowa:między nutą a kreską	!	!	!	!
.	.	[<2d\	e-	.	2b\	in
!LO:TX:t=P:problem:kreska pseudotaktowa	!	!	!	!	!	!
4F\	.	.	.	.	.	.
=36-	=36-	=36-	=36-	=36-	=36-	=36-
!	!	!LO:N:xstem:cue	!	!	!	!
(2E\	in	4d\]	.	0ryy	2cc\	e-
.	.	4c\	.	.	.	.
!LO:TX:t=P:problem:kreska pseudotaktowa	!	!	!	!	!LO:TX:t=P:problem:kreska pseudotaktowa	!
2F\)	.	1c\	.	.	2a\	-is
!	!	!	!	!	!LO:TX:t=P:problem:kreska pseudotaktowa	!
2D/	e-	.	.	.	1dd\	sunt
2D/	-is	2B\	-is	.	.	.
!	!	!	!	!	!LO:LB:g=original	!
=37-	=37-	=37-	=37-	=37-	=37-	=37-
1C/,	sunt	1c\,	sunt	0ryy	2r	.
.	.	.	.	.	1g\	et
!LO:TX:t=P:problem:kreska pseudotaktowa	!	!	!	!	!	!
1C/	in	1G/	et	.	.	.
.	.	.	.	.	1cc\	om-
=38-	=38-	=38-	=38-	=38-	=38-	=38-
2.F\	e-	2.A\	om-	0ryy	.	.
!	!	!	!	!	!LO:TX:t=P:problem:kreska pseudotaktowa	!
.	.	.	.	.	2cc\	-ni-
!LO:TX:t=P:problem:kreska pseudotaktowa	!	!	!	!	!	!
4F\	-is	4B\	-ni-	.	.	.
!	!	!	!	!	!LO:TX:t=P:problem:kreska pseudotaktowa	!
2F\,	sunt	2c\,	-a	.	0a\	-a
!	!	!LO:TX:t=P:problem:kreska pseudotaktowa	!	!	!	!
2F\	et	2c\	quae	.	.	.
=39-	=39-	=39-	=39-	=39-	=39-	=39-
2.D/	om-	1d\	in	0ryy	.	.
4D/	-ni-	.	.	.	.	.
1BB-X/,	-a	1d\	e-	.	2b\	.
.	.	.	.	.	1b-X\	quae
=40-	=40-	=40-	=40-	=40-	=40-	=40-
!LO:TX:t=P:problem:kreska pseudotaktowa	!	!	!	!	!	!
1F\	quae	2c\	.	0ryy	.	.
.	.	2.c\	.	.	2a\	in
1G\	in	.	.	.	0g\	e-
.	.	8B\L	.	.	.	.
.	.	8A\J	.	.	.	.
.	.	2B\	-is	.	.	.
=41-	=41-	=41-	=41-	=41-	=41-	=41-
1.C/	e-	0c\	.	0ryy	.	.
.	.	.	.	.	1g\	-is
2C/	-is	.	.	.	.	.
=42-	=42-	=42-	=42-	=42-	=42-	=42-
!LO:TX:t=P:problem:kreska pseudotaktowa	!	!	!	!	!LO:TX:t=P:problem:kreska pseudotaktowa	!
0D\	sunt.	0A\;	sunt.	0ryy	0f#X/;	sunt.
!LO:LB:g=original	!	!LO:LB:g=original	!	!	!	!
=43||-	=43||-	=43||-	=43||-	=43||-	=43||-	=43||-
*M2/1	*	*M2/1	*	*	*M2/1	*
*met(c|)	*	*met(c|)	*	*	*met(c|)	*
00r	.	00r	.	0ryy	2r	.
.	.	.	.	.	1a\	Tunc
.	.	.	.	.	2cc\	e-
=44-	=44-	=44-	=44-	=44-	=44-	=44-
.	.	.	.	0ryy	2b\	-xul-
.	.	.	.	.	2.dd\	-ta-
.	.	.	.	.	4cc\	.
.	.	.	.	.	4a\	.
!	!	!	!	!	!LO:TX:t=P:problem:kreska pseudotaktowa	!
.	.	.	.	.	4b\	.
=45-	=45-	=45-	=45-	=45-	=45-	=45-
0r	.	0r	.	0ryy	4cc\	.
.	.	.	.	.	4b\	.
.	.	.	.	.	4g\	.
.	.	.	.	.	4a\	.
.	.	.	.	.	4b\	.
.	.	.	.	.	4cc\	.
!	!	!	!	!	!LO:TX:t=P:problem:kreska pseudotaktowa:między nutą a kropką	!
.	.	.	.	.	[<2dd\	.
=46-	=46-	=46-	=46-	=46-	=46-	=46-
!LO:TX:t=P:problem:kreska pseudotaktowa	!	!LO:TX:t=P:problem:kreska pseudotaktowa	!	!	!LO:N:xstem:cue	!
1r	.	1r	.	0ryy	4dd\]	.
.	.	.	.	.	8cc\L	.
.	.	.	.	.	8b\J	.
.	.	.	.	.	2cc\	.
!	!	!	!	!	!LO:TX:t=P:problem:kreska pseudotaktowa	!
1D\	Tunc	2r	.	.	1dd\	-bunt
.	.	1A\	Tunc	.	.	.
=47-	=47-	=47-	=47-	=47-	=47-	=47-
2F\	ex-	.	.	0ryy	00r	.
!LO:TX:t=P:problem:kreska pseudotaktowa	!	!	!	!	!	!
2E\	-ul-	2c\	ex-	.	.	.
2.G\	-ta-	2B\	-ul-	.	.	.
!	!	!LO:TX:t=P:problem:kreska pseudotaktowa:między nutą a kreską	!	!	!	!
.	.	[<2d\	-ta-	.	.	.
!LO:TX:t=P:problem:kreska pseudotaktowa	!	!	!	!	!	!
4F\	.	.	.	.	.	.
=48-	=48-	=48-	=48-	=48-	=48-	=48-
!	!	!LO:N:xstem:cue	!	!	!	!
4D\	.	4d\]	.	0ryy	.	.
4E\	.	4c\	.	.	.	.
4F\	.	4A\	.	.	.	.
!LO:TX:t=P:problem:kreska pseudotaktowa	!	!	!	!	!	!
4D\	.	4B\	.	.	.	.
4C/	.	4c\	.	.	.	.
4D/	.	4B\	.	.	.	.
4E/	.	4G/	.	.	.	.
!LO:TX:t=P:problem:kreska pseudotaktowa	!	!	!	!	!	!
4F/	.	4A/	.	.	.	.
=49-	=49-	=49-	=49-	=49-	=49-	=49-
!	!	!	!	!	!LO:TX:t=P:problem:kreska pseudotaktowa	!
4G\	.	4B\	.	0ryy	0r	.
2F\	.	4c\	.	.	.	.
!	!	!LO:TX:t=P:problem:kreska pseudotaktowa:między nutą a kreską	!	!	!	!
.	.	2.d\	.	.	.	.
8E\L	.	.	.	.	.	.
!LO:TX:t=P:problem:kreska pseudotaktowa	!	!	!	!	!	!
8D\J	.	.	.	.	.	.
1E\	.	.	.	.	.	.
.	.	8c\L	.	.	.	.
.	.	8B\J	.	.	.	.
.	.	2c\	.	.	.	.
=50-	=50-	=50-	=50-	=50-	=50-	=50-
!LO:TX:t=P:problem:kreska pseudotaktowa	!	!	!	!	!	!
1D\,	-bunt	1d\,	-bunt	0ryy	2r	.
.	.	.	.	.	1a\	om-
1.F\	om-	1.c\	om-	.	.	.
.	.	.	.	.	2a\	-ni-
=51-	=51-	=51-	=51-	=51-	=51-	=51-
!	!	!	!	!	!LO:TX:t=P:problem:kreska pseudotaktowa	!
.	.	.	.	0ryy	1a\	-a
!LO:TX:t=P:problem:kreska pseudotaktowa	!	!	!	!	!	!
2F\	-ni-	2c\	-ni-	.	.	.
1A\,	-a	1c\	-a	.	2r	.
.	.	.	.	.	1cc\	li-
=52-	=52-	=52-	=52-	=52-	=52-	=52-
!	!	!LO:TX:t=P:problem:kreska pseudotaktowa	!	!	!	!
1G\	li-	1d\	li-	0ryy	.	.
.	.	.	.	.	2b\	-gna
2F\	-gna	2f\,	-gna	.	2cc\	syl-
!	!	!	!	!	!LO:SIC:v:t=custos d	!
!LO:TX:t=P:problem:kreska pseudotaktowa	!	!	!	!	!LO:TX:t=P:problem:kreska pseudotaktowa:między nutą a kropką	!
2D/	syl-	2f\	syl-	.	[<2dd\	-va-
!	!	!	!	!	!LO:LB:g=original	!
=53-	=53-	=53-	=53-	=53-	=53-	=53-
*lig	*	*	*	*	*	*
!	!	!	!	!	!LO:N:xstem:cue	!
1A\	-va-	2e\	-va-	0ryy	4dd\]	.
.	.	.	.	.	4cc\	.
.	.	4d\	.	.	2.cc\	.
.	.	4c\	.	.	.	.
1G\	.	1d\	.	.	.	.
.	.	.	.	.	8b\L	.
.	.	.	.	.	8a\J	.
.	.	.	.	.	2b\	.
*Xlig	*	*	*	*	*	*
=54-	=54-	=54-	=54-	=54-	=54-	=54-
!LO:TX:t=P:problem:kreska pseudotaktowa	!	!	!	!	!LO:TX:t=P:problem:kreska pseudotaktowa	!
1C/	-rum	2c\,	-rum	0ryy	0cc\	-rum
!	!	!LO:TX:t=P:problem:kreska pseudotaktowa	!	!	!	!
.	.	2G/	a	.	.	.
2r	.	1.A\	fa-	.	.	.
!LO:TX:t=P:problem:kreska pseudotaktowa	!	!	!	!	!	!
2AA/	a	.	.	.	.	.
=55-	=55-	=55-	=55-	=55-	=55-	=55-
1.D\	fa-	.	.	0ryy	2r	.
.	.	2A\	-ci-	.	2a\	a
.	.	1A\	-e	.	1.dd\	fa-
2D\	-ci-	.	.	.	.	.
=56-	=56-	=56-	=56-	=56-	=56-	=56-
!LO:TX:t=P:problem:kreska pseudotaktowa	!	!	!	!	!	!
1BB-X/	-e	2.B-X\	Do-	0ryy	.	.
!	!	!	!	!	!LO:TX:t=P:problem:kreska pseudotaktowa	!
.	.	.	.	.	2dd\	-ci-
.	.	4B-\	-mi-	.	.	.
2.F\	Do-	2A\,	-ni	.	2cc\	-e
!	!	!LO:TX:t=P:problem:kreska pseudotaktowa	!	!	!	!
!	!	!LO:SIC:v:t=custos c	!	!	!	!
.	.	2c\	a	.	2.a\	Do-
4G\	.	.	.	.	.	.
!	!	!LO:LB:g=original	!	!	!	!
=57-	=57-	=57-	=57-	=57-	=57-	=57-
2A\	.	2.c\	fa-	0ryy	.	.
.	.	.	.	.	4b\	.
!LO:TX:t=P:problem:kreska pseudotaktowa	!	!	!	!	!	!
2A\	-mi-	.	.	.	4cc\	.
!	!	!	!	!	!LO:TX:t=P:problem:kreska pseudotaktowa	!
.	.	4c\	-ci-	.	4a\	.
2G\,	-ni	2d\	-e	.	2b\	.
4C/	qui-	1e\	Do-	.	2cc\	.
!LO:TX:t=P:problem:kreska pseudotaktowa	!	!	!	!	!	!
4D/	.	.	.	.	.	.
=58-	=58-	=58-	=58-	=58-	=58-	=58-
4E\	.	.	.	0ryy	1b\	-mi-
4F\	.	.	.	.	.	.
!LO:TX:t=P:problem:kreska pseudotaktowa	!	!	!	!	!	!
!LO:SIC:v:t=custos d	!	!LO:TX:t=P:problem:kreska pseudotaktowa	!	!	!	!
2G\	-a	2d\	.	.	.	.
!LO:LB:g=original	!	!	!	!	!	!
4D\	qui-	2d\	.	.	0a\	-ni
4E\	.	.	.	.	.	.
4F\	.	1c\	.	.	.	.
!LO:TX:t=P:problem:kreska pseudotaktowa	!	!	!	!	!	!
4G\	.	.	.	.	.	.
=59-	=59-	=59-	=59-	=59-	=59-	=59-
2A\	-a	.	.	0ryy	.	.
4AA/	Ve-	2c\	-mi-	.	.	.
!LO:TX:t=P:problem:kreska pseudotaktowa	!	!	!	!	!	!
4BB/	.	.	.	.	.	.
4C/	.	2c\,	-ni	.	0.g\	.
4D/	.	.	.	.	.	.
4E/	.	4B\	quo-	.	.	.
!LO:TX:t=P:problem:kreska pseudotaktowa	!	!	!	!	!	!
4F/	.	4A\	-ni-	.	.	.
=60-	=60-	=60-	=60-	=60-	=60-	=60-
2.G\	.	(4B\	-am	0ryy	.	.
.	.	4c\)	.	.	.	.
.	.	2d\	Ve-	.	.	.
!LO:TX:t=P:problem:kreska pseudotaktowa	!	!	!	!	!	!
4F\	.	.	.	.	.	.
!	!	!LO:TX:t=P:problem:kreska pseudotaktowa	!	!	!	!
1E\	.	1G/	-nit	.	.	.
=61-	=61-	=61-	=61-	=61-	=61-	=61-
!LO:TX:t=P:problem:kreska pseudotaktowa	!	!LO:TX:t=P:problem:kreska pseudotaktowa	!	!	!	!
!	!	!LO:TX:a:t=1	!	!	!	!
1D\	-nit	1r	.	0ryy	1f/	.
!LO:TX:t=P:problem:kreska pseudotaktowa	!	!	!	!	!LO:TX:t=P:problem:kreska pseudotaktowa	!
1r	.	1.A\	quo-	.	1e/	.
=62-	=62-	=62-	=62-	=62-	=62-	=62-
1.D\	quo-	.	.	0ryy	1.f#X/	quo-
.	.	2A\	-ni-	.	.	.
!	!	!LO:TX:t=P:problem:kreska pseudotaktowa	!	!	!	!
.	.	1A\	-am	.	.	.
!LO:TX:t=P:problem:kreska pseudotaktowa	!	!	!	!	!	!
2D/	-ni-	.	.	.	2f#/	-ni-
=63-	=63-	=63-	=63-	=63-	=63-	=63-
2.G\	-am	2.B\	ve-	0ryy	0g\	-am
!LO:TX:t=P:problem:kreska pseudotaktowa	!	!	!	!	!	!
4F\	.	4A\	.	.	.	.
4E\	.	2B\	.	.	.	.
4D\	.	.	.	.	.	.
4C/	.	2c\	-nit	.	.	.
!LO:TX:t=P:problem:kreska pseudotaktowa	!	!	!	!	!	!
4BB/	.	.	.	.	.	.
=64-	=64-	=64-	=64-	=64-	=64-	=64-
4AA/	.	2r	.	0ryy	1cc\	Ve-
4BB/	.	.	.	.	.	.
!LO:TX:t=P:problem:kreska pseudotaktowa	!	!	!	!	!	!
2C/	.	1G/	ju-	.	.	.
!	!	!	!	!	!LO:TX:t=P:problem:kreska pseudotaktowa	!
1GG/	ve-	.	.	.	1b\	-nit
!	!	!LO:TX:t=P:problem:kreska pseudotaktowa	!	!	!	!
.	.	2G/	-di-	.	.	.
=65-	=65-	=65-	=65-	=65-	=65-	=65-
!LO:TX:t=P:problem:kreska pseudotaktowa	!	!	!	!	!	!
1AA/	-nit	2E/	-ca-	0ryy	2r	.
.	.	2E/	-re	.	1a\	ju-
2r	.	2.F#X/	ter-	.	.	.
!	!	!	!	!	!LO:TX:t=P:problem:kreska pseudotaktowa	!
1D\	ju-	.	.	.	2a\	-di-
.	.	4G/	.	.	.	.
=66-	=66-	=66-	=66-	=66-	=66-	=66-
.	.	4A/	.	0ryy	1f#X/	-ca-
.	.	4D/	.	.	.	.
!	!	!LO:TX:t=P:problem:kreska pseudotaktowa:między nutą a kreską	!	!	!	!
2D\	-di-	[<2A/	.	.	.	.
!	!	!LO:N:xstem:cue	!	!	!	!
2BB/	-ca-	4A/]	.	.	1g\	-re
.	.	4G/	.	.	.	.
2C/	-re	2.G/	.	.	.	.
=67-	=67-	=67-	=67-	=67-	=67-	=67-
1AA/	ter-	.	.	0ryy	1a\	ter-
.	.	8F/L	.	.	.	.
.	.	8E/J	.	.	.	.
!	!	!LO:TX:t=P:problem:kreska pseudotaktowa	!	!	!	!
.	.	2F#X/	.	.	.	.
!LO:TX:t=P:problem:kreska pseudotaktowa	!	!	!	!	!LO:TX:t=P:problem:kreska pseudotaktowa	!
1GG/	-ram	2G/,	-ram	.	1d/	-ram
.	.	1d\	ju-	.	.	.
!	!	!	!	!	!LO:LB:g=original	!
=68-	=68-	=68-	=68-	=68-	=68-	=68-
!LO:TX:t=P:problem:kreska pseudotaktowa	!	!	!	!	!	!
1G\	ju-	.	.	0ryy	00r	.
!	!	!LO:TX:t=P:problem:kreska pseudotaktowa	!	!	!	!
.	.	2d\	-di-	.	.	.
!	!	!LO:LB:g=original	!	!	!	!
2G\	-di-	1B\	-ca-	.	.	.
1E\	-ca-	.	.	.	.	.
=69-	=69-	=69-	=69-	=69-	=69-	=69-
.	.	2c\	-re	0ryy	.	.
!LO:TX:t=P:problem:kreska pseudotaktowa	!	!	!	!	!	!
2F\	-re	2.A/	ter-	.	.	.
4D\	ter-	.	.	.	.	.
4E\	.	4G/	.	.	.	.
4F\	.	4A\	.	.	.	.
!LO:TX:t=P:problem:kreska pseudotaktowa	!	!LO:TX:t=P:problem:kreska pseudotaktowa	!	!	!	!
4G\	.	4B/	.	.	.	.
=70-	=70-	=70-	=70-	=70-	=70-	=70-
!	!	!	!	!	!LO:TX:t=P:problem:kreska pseudotaktowa	!
4A\	.	4c\	.	0ryy	1r	.
4D\	.	4d\	.	.	.	.
!LO:TX:t=P:problem:kreska pseudotaktowa:między nutę a kropką	!	!	!	!	!	!
!LO:SIC:v:t=custos g	!	!	!	!	!	!
!LO:LB:g=original	!	!	!	!	!	!
[<2G\	.	2B\	.	.	.	.
!LO:N:xstem:cue	!	!	!	!	!	!
4G\]	.	1A\	.	.	2r	.
8F\L	.	.	.	.	.	.
8E\J	.	.	.	.	.	.
2F#X\	.	.	.	.	1dd\	ju-
=71-	=71-	=71-	=71-	=71-	=71-	=71-
!LO:TX:t=P:problem:kreska pseudotaktowa	!	!	!	!	!	!
0G\	-ram	2.B\	.	0ryy	.	.
.	.	.	.	.	2dd\	-di-
.	.	4c\	.	.	.	.
!	!	!LO:TX:t=P:problem:kreska pseudotaktowa	!	!	!LO:TX:t=P:problem:kreska pseudotaktowa	!
.	.	1d\	-ram	.	1b\	-ca-
=72-	=72-	=72-	=72-	=72-	=72-	=72-
0r	.	0r	.	0ryy	2cc\	-re
.	.	.	.	.	2.a\	ter-
.	.	.	.	.	4g\	.
.	.	.	.	.	4a\	.
.	.	.	.	.	4b\	.
=73-	=73-	=73-	=73-	=73-	=73-	=73-
!LO:TX:t=P:problem:kreska pseudotaktowa	!	!	!	!	!	!
1r	.	1r	.	0ryy	4cc\	.
.	.	.	.	.	4dd\	.
!	!	!	!	!	!LO:TX:t=P:problem:kreska pseudotaktowa	!
.	.	.	.	.	2b\	.
2r	.	1d\	ju-	.	2a\,	-ram
!LO:TX:t=P:problem:kreska pseudotaktowa	!	!	!	!	!	!
2D\	ju-	.	.	.	2a\	ju-
=74-	=74-	=74-	=74-	=74-	=74-	=74-
2G\	-di-	1d\	-di-	0ryy	2b\	-di-
!	!	!	!	!	!LO:TX:t=P:problem:kreska pseudotaktowa:między nutą a kropką	!
1G\	-ca-	.	.	.	2.b\	-ca-
.	.	2B\	-ca-	.	.	.
.	.	.	.	.	4a\	.
2C/,	-re	2c\	-re	.	1g\	.
=75-	=75-	=75-	=75-	=75-	=75-	=75-
!LO:TX:t=P:problem:kreska pseudotaktowa	!	!LO:TX:t=P:problem:kreska pseudotaktowa	!	!	!	!
1D\	ter-	1A\	ter-	0ryy	.	.
!	!	!	!	!	!LO:TX:t=P:problem:kreska pseudotaktowa	!
.	.	.	.	.	2f/	.
2GG/,	-ram	2.G/	.	.	2g\	.
*	*ij	*	*	*	*	*
1G\	ju-	.	.	.	2d/	.
.	.	4A/	.	.	.	.
=76-	=76-	=76-	=76-	=76-	=76-	=76-
.	.	4B\	.	0ryy	2.g\	.
.	.	4c\	.	.	.	.
!LO:TX:t=P:problem:kreska pseudotaktowa	!	!	!	!	!	!
2G\	-di-	2.d\	.	.	.	.
!	!	!	!	!	!LO:TX:t=P:problem:kreska pseudotaktowa	!
.	.	.	.	.	4g\	-re
2E\	-ca-	.	.	.	2g\	ter-
.	.	4c\	.	.	.	.
!LO:TX:t=P:problem:kreska pseudotaktowa	!	!	!	!	!	!
2F\	-re	1c\	.	.	2a\	.
=77-	=77-	=77-	=77-	=77-	=77-	=77-
1D\	ter-	.	.	0ryy	1f/	.
!	!	!LO:TX:t=P:problem:kreska pseudotaktowa	!	!	!	!
.	.	2B\	.	.	.	.
!LO:TX:t=P:problem:kreska pseudotaktowa	!	!	!	!	!	!
1C/,	-ram	2c\,	-ram	.	2e/,	-ram
*	*Xij	*	*	*	*	*
.	.	1e\	ju-	.	1cc\	ju-
=78-	=78-	=78-	=78-	=78-	=78-	=78-
2.G\	ju-	.	.	0ryy	.	.
!	!	!	!	!	!LO:TX:t=P:problem:kreska pseudotaktowa	!
.	.	2.d\	.	.	2b\	-di-
!LO:TX:t=P:problem:kreska pseudotaktowa	!	!	!	!	!	!
4G\	-di-	.	.	.	.	.
2A\	-ca-	.	.	.	2a\	-ca-
.	.	4c\	-di-	.	.	.
!LO:TX:t=P:problem:kreska pseudotaktowa	!	!	!	!	!	!
2F\	-re	1c\	-ca-	.	2a\	-re
=79-	=79-	=79-	=79-	=79-	=79-	=79-
1G\	ter-	.	.	0ryy	2.g\	ter-
!	!	!LO:TX:t=P:problem:kreska pseudotaktowa	!	!	!	!
.	.	2B\	-re	.	.	.
!	!	!	!	!	!LO:TX:t=P:problem:kreska pseudotaktowa	!
.	.	.	.	.	4f/	.
!LO:TX:t=P:problem:kreska pseudotaktowa	!	!	!	!	!	!
1C/	.	2.c\	ter-	.	1e/	.
.	.	4B\	.	.	.	.
=80-	=80-	=80-	=80-	=80-	=80-	=80-
!LO:TX:t=P:problem:kreska pseudotaktowa	!	!	!	!	!	!
1D\,	-ram	4A/	.	0ryy	2d/	-ram
.	.	4G/	.	.	.	.
.	.	2A/	.	.	1dd\	ju-
!	!	!LO:TX:t=P:problem:kreska pseudotaktowa	!	!	!	!
2r	.	1B\	ram	.	.	.
!	!	!	!	!	!LO:TX:t=P:problem:kreska pseudotaktowa	!
*	*ij	*	*	*	*	*
1G\	ju-	.	.	.	2dd\	-di-
=81-	=81-	=81-	=81-	=81-	=81-	=81-
!	!	!	!	!	!LO:TX:b:t=Cito.	!
!	!	!	!	!	!LO:SIC:v:t=custos c	!
.	.	2.d\	ju-	0ryy	1b\	-ca-
!LO:TX:t=P:problem:kreska pseudotaktowa	!	!	!	!	!	!
2G\	-di-	.	.	.	.	.
!	!	!LO:TX:t=P:problem:kreska pseudotaktowa	!	!	!	!
!	!	!LO:SIC:v:t=custos e	!	!	!	!
.	.	4d\	-di-	.	.	.
!	!	!LO:LB:g=original	!	!	!LO:PB:g=original	!
2E\	-ca-	2e\	-ca-	.	2cc\	-re
!LO:TX:t=P:problem:kreska pseudotaktowa	!	!	!	!	!	!
2F\	-re	1c\	-re	.	1a\	ter-
=82-	=82-	=82-	=82-	=82-	=82-	=82-
!LO:TX:t=P:problem:kreska pseudotaktowa	!	!	!	!	!	!
1D\	ter-	.	.	0ryy	.	.
.	.	2B\	ter-	.	4g/	.
!	!	!	!	!	!LO:TX:t=P:problem:kreska pseudotaktowa	!
.	.	.	.	.	4f/	.
!LO:TX:t=P:problem:kreska pseudotaktowa	!	!	!	!	!	!
1C/	-ram	2c\,	-ram	.	2e/,	-ram
.	.	2c\	ju-	.	2ee\	ju-
=83-	=83-	=83-	=83-	=83-	=83-	=83-
0r	.	2B\	-di-	0ryy	2dd\	-di-
!	!	!LO:TX:t=P:problem:kreska pseudotaktowa:między nutą a kropką	!	!	!	!
.	.	[<2c\	-ca-	.	2.ee\	-ca-
!	!	!LO:N:xstem:cue	!	!	!	!
.	.	4c\]	.	.	.	.
.	.	4B\	.	.	4dd\	.
.	.	2A/	.	.	1cc\	.
=84-	=84-	=84-	=84-	=84-	=84-	=84-
!LO:TX:t=P:problem:kreska pseudotaktowa	!	!	!	!	!	!
!LO:SIC:v:t=custos a	!	!	!	!	!	!
1r	.	1G/	-re	0ryy	.	.
!	!	!	!	!	!LO:TX:t=P:problem:kreska pseudotaktowa	!
.	.	.	.	.	2b\	-re
!LO:LB:g=original	!	!	!	!	!	!
2r	.	2.A\	ter-	.	1cc\	ter-
1A\	ju-	.	.	.	.	.
!	!	!LO:TX:t=P:problem:kreska pseudotaktowa	!	!	!	!
.	.	4B\	.	.	.	.
=85-	=85-	=85-	=85-	=85-	=85-	=85-
!	!	!	!	!	!LO:TX:t=P:problem:kreska pseudotaktowa	!
.	.	4c\	.	0ryy	1a\	-ram
.	.	4d\	.	.	.	.
!LO:TX:t=P:problem:kreska pseudotaktowa	!	!	!	!	!	!
2A\	-di-	2.e\	.	.	.	.
2F#X\	-ca-	.	.	.	2r	.
.	.	4d\	.	.	.	.
!LO:TX:t=P:problem:kreska pseudotaktowa	!	!	!	!	!	!
2G\	-re	2.d\	.	.	1g\	ju-
=86-	=86-	=86-	=86-	=86-	=86-	=86-
1E\	ter-	.	.	0ryy	.	.
.	.	8c\L	.	.	.	.
.	.	8B\J	.	.	.	.
!	!	!LO:TX:t=P:problem:kreska pseudotaktowa	!	!	!LO:TX:t=P:problem:kreska pseudotaktowa	!
.	.	2c\	.	.	2e/	-di-
!LO:TX:t=P:problem:kreska pseudotaktowa	!	!	!	!	!	!
1D\,	-ram	1d\	-ram	.	1a\	-ca-
*	*Xij	*	*	*	*	*
=87-	=87-	=87-	=87-	=87-	=87-	=87-
1G\	ju-	2r	.	0ryy	2b-X\	-re
.	.	1d\	ju-	.	2.b-\	ter-
!LO:TX:t=P:problem:kreska pseudotaktowa	!	!	!	!	!	!
1D\	-di-	.	.	.	.	.
.	.	.	.	.	4a\	.
!	!	!LO:TX:t=P:problem:kreska pseudotaktowa	!	!	!LO:TX:t=P:problem:kreska pseudotaktowa:między nutą a kropką	!
.	.	2d\	-di-	.	[<2a\	.
=88-	=88-	=88-	=88-	=88-	=88-	=88-
!	!	!	!	!	!LO:N:xstem:cue	!
2E\	-ca-	2B\	-ca-	0ryy	4a\]	.
.	.	.	.	.	4g/	.
!LO:TX:t=P:problem:kreska pseudotaktowa	!	!	!	!	!	!
2C/	-re	2c\	-re	.	2.g/	.
1D\	ter-	1A\	ter-	.	.	.
.	.	.	.	.	8f/L	.
.	.	.	.	.	8e/J	.
.	.	.	.	.	2f/	.
=89-	=89-	=89-	=89-	=89-	=89-	=89-
0GG/;	-ram.	0G/;	-ram.	0ryy	0g\;	-ram.
==	==	==	==	==	==	==
*-	*-	*-	*-	*-	*-	*-
!!!system-decoration: [(s1,s2,s3,s4)]
!!!RDF**kern: < = below
!!!EED: Leszek Kubiak
!!!EST: 2021-03-19
!!!ENC: Berenika Jozajtis
!!!END: 2021-03-04
